packages/ui/assets/svg/witnet-logo.svg

<svg class="witnet-logo" width="300" height="46" viewBox="0 0 300 46" fill="none" xmlns="http://www.w3.org/2000/svg">
<path class="fill" d="M47.3593 17.5497L55.6795 22.6714L47.3593 27.8019C47.9641 26.2061 48.3199 24.4781 48.3199 22.6714C48.3199 20.864 47.9641 19.1455 47.3593 17.5497V17.5497ZM19.8402 17.5497C19.2354 19.1455 18.8796 20.8728 18.8796 22.6714C18.8796 24.4781 19.2265 26.1973 19.8402 27.7931L11.52 22.6714L19.8402 17.5497ZM33.6001 11.1326C40.0435 11.1326 45.2265 16.2801 45.2265 22.6714C45.2265 29.062 40.0353 34.2013 33.6001 34.2013C27.1553 34.2013 21.9641 29.0538 21.9641 22.6714C21.9641 16.2896 27.1642 11.1326 33.6001 11.1326V11.1326ZM33.6001 5.52603L32.1598 6.40767L26.4616 9.91596C26.0531 10.1452 25.6623 10.3832 25.2799 10.6477L5.76904 22.6714L25.2799 34.6862C25.6706 34.9507 26.0708 35.1976 26.4882 35.4268L33.6083 39.8079L40.6128 35.4885C40.6306 35.4797 40.6484 35.4621 40.6662 35.4532C41.1014 35.2152 41.5283 34.9507 41.9374 34.6686L61.4394 22.6714L41.9285 10.6565C41.5372 10.392 41.1376 10.1364 40.7195 9.90714L33.6001 5.52603Z" fill="#181819"></path>
<path class="fill" d="M64.3015 25.3953C63.4038 25.4041 62.426 25.6422 61.4394 26.2153L36.4794 41.5797L36.7291 41.7296C37.4305 42.1351 38.3548 42.4172 39.3777 42.399C40.2754 42.3908 41.2532 42.1528 42.2392 41.5797L47.1458 38.5557L67.1903 26.2064L66.933 26.0477C66.2304 25.6598 65.3238 25.3865 64.3015 25.3953Z" fill="#181819"></path>
<path class="fill" d="M27.8217 2.93431C26.924 2.94313 25.9463 3.18117 24.9596 3.75424L20.053 6.77763L0.000244141 19.1275C1.29758 19.9915 3.49326 20.4323 5.75946 19.1275L30.7201 3.76306L30.4711 3.61318C29.7684 3.19881 28.8529 2.91668 27.8217 2.93431Z" fill="#181819"></path>
<path class="fill" d="M118.97 10.3144H114.728V35.1433H118.97V20.6164H122.733V16.353H118.97V10.3144Z" fill="#181819"></path>
<path class="fill" d="M169.955 16.3532V10.3147H165.713V35.1435H169.955V20.6166H173.718V16.3532H169.955Z" fill="#181819"></path>
<path class="fill" d="M106.163 35.1434H110.339V16.3532H106.163V35.1434Z" fill="#181819"></path>
<path class="fill" d="M110.306 10.3146H106.194V14.6611H110.306V10.3146Z" fill="#181819"></path>
<path class="fill" d="M97.61 31.0067H90.401V16.3533H86.2282V31.0067H79.9683C79.1062 31.0067 78.4067 30.314 78.4067 29.4588V16.3533H74.2333V31.2593C74.2333 33.4048 75.988 35.1435 78.152 35.1435H101.783V16.3533H97.61V31.0067Z" fill="#181819"></path>
<path class="fill" d="M138.165 16.3532H125.488V35.1315H129.66V20.49H136.348C137.211 20.49 137.91 21.1827 137.91 22.0379V35.1315H142.084V20.2368C142.084 18.0919 140.329 16.3532 138.165 16.3532Z" fill="#181819"></path>
<path class="fill" d="M151.703 20.2996C153.617 19.2914 155.466 19.6365 157.025 20.9174L149.015 25.1385C148.849 23.1227 149.725 21.3424 151.703 20.2996ZM157.261 30.5039C154.822 31.7886 152.001 31.0965 150.235 28.5933L163.287 21.7159C163.065 21.19 162.793 20.6913 162.484 20.2177C162.415 20.1088 162.341 20.0068 162.269 19.9016C160.511 17.4267 157.613 15.8051 154.328 15.8051C153.036 15.8051 151.806 16.0602 150.678 16.5142C150.594 16.5495 150.509 16.5816 150.426 16.6194C150.081 16.7692 149.751 16.9418 149.428 17.1295C149.133 17.3014 148.856 17.4878 148.586 17.6805C146.183 19.4324 144.616 22.2467 144.616 25.4307C144.616 30.7476 148.964 35.0576 154.328 35.0576C159.198 35.0576 163.219 31.4995 163.92 26.8653C162.874 26.8621 160.085 26.8546 160.065 26.8533C159.715 28.4214 158.712 29.7394 157.261 30.5039Z" fill="#181819"></path>
<path class="fill" d="M178.776 35.1315H174.538V30.9311H178.776V35.1315Z" fill="#41BEA5"></path>
<path class="fill" d="M47.3593 17.5497L55.6795 22.6714L47.3593 27.8019C47.9641 26.2061 48.3199 24.4781 48.3199 22.6714C48.3199 20.864 47.9641 19.1455 47.3593 17.5497V17.5497ZM19.8402 17.5497C19.2354 19.1455 18.8796 20.8728 18.8796 22.6714C18.8796 24.4781 19.2265 26.1973 19.8402 27.7931L11.52 22.6714L19.8402 17.5497ZM33.6001 11.1326C40.0435 11.1326 45.2265 16.2801 45.2265 22.6714C45.2265 29.062 40.0353 34.2013 33.6001 34.2013C27.1553 34.2013 21.9641 29.0538 21.9641 22.6714C21.9641 16.2896 27.1642 11.1326 33.6001 11.1326V11.1326ZM33.6001 5.52603L32.1598 6.40767L26.4616 9.91596C26.0531 10.1452 25.6623 10.3832 25.2799 10.6477L5.76904 22.6714L25.2799 34.6862C25.6706 34.9507 26.0708 35.1976 26.4882 35.4268L33.6083 39.8079L40.6128 35.4885C40.6306 35.4797 40.6484 35.4621 40.6662 35.4532C41.1014 35.2152 41.5283 34.9507 41.9374 34.6686L61.4394 22.6714L41.9285 10.6565C41.5372 10.392 41.1376 10.1364 40.7195 9.90714L33.6001 5.52603Z" fill="#181819"></path>
<path class="fill" d="M64.3015 25.3953C63.4038 25.4041 62.426 25.6422 61.4394 26.2153L36.4794 41.5797L36.7291 41.7296C37.4305 42.1351 38.3548 42.4172 39.3777 42.399C40.2754 42.3908 41.2532 42.1528 42.2392 41.5797L47.1458 38.5557L67.1903 26.2064L66.933 26.0477C66.2304 25.6598 65.3238 25.3865 64.3015 25.3953Z" fill="#181819"></path>
<path class="fill" d="M27.8217 2.93431C26.924 2.94313 25.9463 3.18117 24.9596 3.75424L20.053 6.77763L0.000244141 19.1275C1.29758 19.9915 3.49326 20.4323 5.75946 19.1275L30.7201 3.76306L30.4711 3.61318C29.7684 3.19881 28.8529 2.91668 27.8217 2.93431Z" fill="#181819"></path>
<path class="fill" d="M118.97 10.3144H114.728V35.1433H118.97V20.6164H122.733V16.353H118.97V10.3144Z" fill="#181819"></path>
<path class="fill" d="M169.955 16.3532V10.3147H165.713V35.1435H169.955V20.6166H173.718V16.3532H169.955Z" fill="#181819"></path>
<path class="fill" d="M106.163 35.1434H110.339V16.3532H106.163V35.1434Z" fill="#181819"></path>
<path class="fill" d="M110.306 10.3146H106.194V14.6611H110.306V10.3146Z" fill="#181819"></path>
<path class="fill" d="M97.61 31.0067H90.401V16.3533H86.2282V31.0067H79.9683C79.1062 31.0067 78.4067 30.314 78.4067 29.4588V16.3533H74.2333V31.2593C74.2333 33.4048 75.988 35.1435 78.152 35.1435H101.783V16.3533H97.61V31.0067Z" fill="#181819"></path>
<path class="fill" d="M138.165 16.3532H125.488V35.1315H129.66V20.49H136.348C137.211 20.49 137.91 21.1827 137.91 22.0379V35.1315H142.084V20.2368C142.084 18.0919 140.329 16.3532 138.165 16.3532Z" fill="#181819"></path>
<path class="fill" d="M151.703 20.2996C153.617 19.2914 155.466 19.6365 157.025 20.9174L149.015 25.1385C148.849 23.1227 149.725 21.3424 151.703 20.2996ZM157.261 30.5039C154.822 31.7886 152.001 31.0965 150.235 28.5933L163.287 21.7159C163.065 21.19 162.793 20.6913 162.484 20.2177C162.415 20.1088 162.341 20.0068 162.269 19.9016C160.511 17.4267 157.613 15.8051 154.328 15.8051C153.036 15.8051 151.806 16.0602 150.678 16.5142C150.594 16.5495 150.509 16.5816 150.426 16.6194C150.081 16.7692 149.751 16.9418 149.428 17.1295C149.133 17.3014 148.856 17.4878 148.586 17.6805C146.183 19.4324 144.616 22.2467 144.616 25.4307C144.616 30.7476 148.964 35.0576 154.328 35.0576C159.198 35.0576 163.219 31.4995 163.92 26.8653C162.874 26.8621 160.085 26.8546 160.065 26.8533C159.715 28.4214 158.712 29.7394 157.261 30.5039Z" fill="#181819"></path>
<path d="M178.776 35.1315H174.538V30.9311H178.776V35.1315Z" fill="#41BEA5"></path>
<path d="M252.499 8.63008V19.5447H252.428C251.437 18.3866 249.632 17.193 247.047 17.193C241.914 17.193 238.726 21.4747 238.726 26.3527C238.726 31.2306 241.807 35.6517 247.118 35.6517C249.455 35.6517 251.756 34.6347 252.889 32.8801H252.96V35.1606H258.306V8.63008H252.499ZM183.629 10.3148V35.1606H189.612V25.5098H199.312V20.5614H189.612V15.4381H200.127V10.3148H183.629ZM209.111 17.1228C203.765 17.1228 199.587 20.7728 199.587 26.493C199.587 32.3886 203.977 35.7219 209.288 35.7219C212.864 35.7219 215.625 34.389 217.289 32.0026L213.254 29.4751C212.475 30.5279 211.2 31.3001 209.359 31.3001C207.27 31.3001 205.322 29.9319 205.145 28.0018H217.927C217.962 27.5807 217.962 27.0895 217.962 26.6333C217.962 20.6674 214.315 17.1228 209.111 17.1228ZM228.681 17.1228C223.335 17.1228 219.157 20.7728 219.157 26.493C219.157 32.3886 223.547 35.7219 228.857 35.7219C232.433 35.7219 235.195 34.389 236.859 32.0026L232.823 29.4751C232.044 30.5279 230.769 31.3001 228.928 31.3001C226.839 31.3001 224.892 29.9319 224.715 28.0018H237.496C237.532 27.5807 237.532 27.0895 237.532 26.6333C237.532 20.6674 233.885 17.1228 228.681 17.1228ZM267.856 17.1228C264.492 17.1228 260.527 18.8072 260.527 22.9832C260.527 26.282 263.218 27.5105 265.661 28.072C268.068 28.6335 269.166 28.984 269.166 30.0719C269.166 31.1949 268.033 31.5807 267.077 31.5807C265.378 31.5807 263.784 30.7394 262.758 29.6164L259.5 33.0204C261.341 34.775 264.315 35.7219 267.183 35.7219C270.794 35.7219 274.724 34.1784 274.724 29.7567C274.724 26.3526 271.786 25.0185 269.095 24.4219C266.829 23.9306 265.873 23.6497 265.873 22.6671C265.873 21.6493 266.97 21.2639 268.068 21.2639C269.484 21.2639 270.83 21.9656 271.75 22.8429L274.936 19.5792C273.202 17.9649 270.476 17.1228 267.856 17.1228ZM209.146 21.0881C211.448 21.0881 212.616 22.5971 212.616 24.4219H205.145C205.287 22.6322 206.916 21.0881 209.146 21.0881ZM228.716 21.0881C231.017 21.0881 232.186 22.5971 232.186 24.4219H224.715C224.857 22.6322 226.485 21.0881 228.716 21.0881ZM248.499 21.8953C251.119 21.8953 252.747 24.1764 252.747 26.3873C252.747 28.6683 251.119 30.8792 248.499 30.8792C245.737 30.8792 244.321 28.6337 244.321 26.3527C244.321 24.1067 245.737 21.8953 248.499 21.8953Z" fill="#41BEA5"></path>
</svg>

<svg class="witnet-logo" width="300" height="46" fill="none" viewBox="0 0 300 46" xmlns="http://www.w3.org/2000/svg"><path class="fill" d="m47.36 17.55 8.32 5.121-8.32 5.13c.604-1.595.96-3.323.96-5.13s-.356-3.526-.96-5.121Zm-27.52 0a14.442 14.442 0 0 0-.96 5.121c0 1.807.347 3.526.96 5.122l-8.32-5.122 8.32-5.121Zm13.76-6.417c6.444 0 11.627 5.147 11.627 11.538s-5.192 11.53-11.627 11.53c-6.445 0-11.636-5.147-11.636-11.53 0-6.381 5.2-11.538 11.636-11.538Zm0-5.607-1.44.882-5.698 3.508c-.409.23-.8.467-1.182.732L5.769 22.67l19.51 12.015c.392.265.792.512 1.21.74l7.12 4.382 7.004-4.32c.018-.008.035-.026.053-.035.435-.238.862-.502 1.271-.784L61.44 22.67 41.93 10.657a15.31 15.31 0 0 0-1.21-.75L33.6 5.526ZM64.302 25.395c-.898.01-1.876.247-2.863.82L36.48 41.58l.25.15a5.157 5.157 0 0 0 2.649.669c.897-.008 1.875-.246 2.861-.82l4.907-3.023 20.044-12.35-.257-.158a5.372 5.372 0 0 0-2.632-.653ZM27.822 2.934c-.898.01-1.876.247-2.862.82l-4.907 3.024L0 19.128c1.298.863 3.493 1.304 5.76 0L30.72 3.763l-.249-.15a5.064 5.064 0 0 0-2.65-.679ZM118.97 10.314h-4.242v24.83h4.242V20.615h3.763v-4.263h-3.763v-6.039ZM169.955 16.353v-6.038h-4.242v24.829h4.242V20.617h3.763v-4.264h-3.763ZM106.163 35.143h4.176v-18.79h-4.176v18.79ZM110.306 10.315h-4.112v4.346h4.112v-4.346ZM97.61 31.007h-7.209V16.353h-4.173v14.654h-6.26a1.555 1.555 0 0 1-1.561-1.548V16.353h-4.174V31.26c0 2.146 1.755 3.885 3.919 3.885h23.631v-18.79H97.61v14.653ZM138.165 16.353h-12.677v18.779h4.172V20.49h6.688c.863 0 1.562.693 1.562 1.548v13.094h4.174V20.237c0-2.145-1.755-3.884-3.919-3.884ZM151.703 20.3c1.914-1.009 3.763-.663 5.322.617l-8.01 4.221c-.166-2.015.71-3.796 2.688-4.838Zm5.558 10.204c-2.439 1.285-5.26.592-7.026-1.91l13.052-6.878a9.519 9.519 0 0 0-.803-1.498c-.069-.11-.143-.211-.215-.316a9.72 9.72 0 0 0-7.941-4.097 9.75 9.75 0 0 0-3.65.71c-.084.034-.169.067-.252.104-.345.15-.675.323-.998.51a10.86 10.86 0 0 0-.842.551c-2.403 1.752-3.97 4.567-3.97 7.75 0 5.318 4.348 9.628 9.712 9.628 4.87 0 8.891-3.558 9.592-8.193-1.046-.003-3.835-.01-3.855-.012a5.439 5.439 0 0 1-2.804 3.65Z" fill="#181819"/><path class="fill" d="M178.776 35.132h-4.238v-4.2h4.238v4.2Z" fill="#41BEA5"/><path class="fill" d="m47.36 17.55 8.32 5.121-8.32 5.13c.604-1.595.96-3.323.96-5.13s-.356-3.526-.96-5.121Zm-27.52 0a14.442 14.442 0 0 0-.96 5.121c0 1.807.347 3.526.96 5.122l-8.32-5.122 8.32-5.121Zm13.76-6.417c6.444 0 11.627 5.147 11.627 11.538s-5.192 11.53-11.627 11.53c-6.445 0-11.636-5.147-11.636-11.53 0-6.381 5.2-11.538 11.636-11.538Zm0-5.607-1.44.882-5.698 3.508c-.409.23-.8.467-1.182.732L5.769 22.67l19.51 12.015c.392.265.792.512 1.21.74l7.12 4.382 7.004-4.32c.018-.008.035-.026.053-.035.435-.238.862-.502 1.271-.784L61.44 22.67 41.93 10.657a15.31 15.31 0 0 0-1.21-.75L33.6 5.526ZM64.302 25.395c-.898.01-1.876.247-2.863.82L36.48 41.58l.25.15a5.157 5.157 0 0 0 2.649.669c.897-.008 1.875-.246 2.861-.82l4.907-3.023 20.044-12.35-.257-.158a5.372 5.372 0 0 0-2.632-.653ZM27.822 2.934c-.898.01-1.876.247-2.862.82l-4.907 3.024L0 19.128c1.298.863 3.493 1.304 5.76 0L30.72 3.763l-.249-.15a5.064 5.064 0 0 0-2.65-.679ZM118.97 10.314h-4.242v24.83h4.242V20.615h3.763v-4.263h-3.763v-6.039ZM169.955 16.353v-6.038h-4.242v24.829h4.242V20.617h3.763v-4.264h-3.763ZM106.163 35.143h4.176v-18.79h-4.176v18.79ZM110.306 10.315h-4.112v4.346h4.112v-4.346ZM97.61 31.007h-7.209V16.353h-4.173v14.654h-6.26a1.555 1.555 0 0 1-1.561-1.548V16.353h-4.174V31.26c0 2.146 1.755 3.885 3.919 3.885h23.631v-18.79H97.61v14.653ZM138.165 16.353h-12.677v18.779h4.172V20.49h6.688c.863 0 1.562.693 1.562 1.548v13.094h4.174V20.237c0-2.145-1.755-3.884-3.919-3.884ZM151.703 20.3c1.914-1.009 3.763-.663 5.322.617l-8.01 4.221c-.166-2.015.71-3.796 2.688-4.838Zm5.558 10.204c-2.439 1.285-5.26.592-7.026-1.91l13.052-6.878a9.519 9.519 0 0 0-.803-1.498c-.069-.11-.143-.211-.215-.316a9.72 9.72 0 0 0-7.941-4.097 9.75 9.75 0 0 0-3.65.71c-.084.034-.169.067-.252.104-.345.15-.675.323-.998.51a10.86 10.86 0 0 0-.842.551c-2.403 1.752-3.97 4.567-3.97 7.75 0 5.318 4.348 9.628 9.712 9.628 4.87 0 8.891-3.558 9.592-8.193-1.046-.003-3.835-.01-3.855-.012a5.439 5.439 0 0 1-2.804 3.65Z" fill="#181819"/><path d="M178.776 35.132h-4.238v-4.2h4.238v4.2ZM252.499 8.63v10.915h-.071c-.991-1.158-2.796-2.352-5.381-2.352-5.133 0-8.321 4.282-8.321 9.16s3.081 9.299 8.392 9.299c2.337 0 4.638-1.017 5.771-2.772h.071v2.28h5.346V8.63h-5.807Zm-68.87 1.685V35.16h5.983V25.51h9.7V20.56h-9.7v-5.123h10.515v-5.123h-16.498Zm25.482 6.808c-5.346 0-9.524 3.65-9.524 9.37 0 5.896 4.39 9.229 9.701 9.229 3.576 0 6.337-1.333 8.001-3.72l-4.035-2.527c-.779 1.053-2.054 1.825-3.895 1.825-2.089 0-4.037-1.368-4.214-3.298h12.782c.035-.421.035-.912.035-1.369 0-5.966-3.647-9.51-8.851-9.51Zm19.57 0c-5.346 0-9.524 3.65-9.524 9.37 0 5.896 4.39 9.229 9.7 9.229 3.576 0 6.338-1.333 8.002-3.72l-4.036-2.527c-.779 1.053-2.054 1.825-3.895 1.825-2.089 0-4.036-1.368-4.213-3.298h12.781c.036-.421.036-.912.036-1.369 0-5.966-3.647-9.51-8.851-9.51Zm39.175 0c-3.364 0-7.329 1.684-7.329 5.86 0 3.299 2.691 4.527 5.134 5.089 2.407.562 3.505.912 3.505 2 0 1.123-1.133 1.509-2.089 1.509-1.699 0-3.293-.842-4.319-1.965L259.5 33.02c1.841 1.755 4.815 2.702 7.683 2.702 3.611 0 7.541-1.544 7.541-5.965 0-3.404-2.938-4.739-5.629-5.335-2.266-.491-3.222-.772-3.222-1.755 0-1.018 1.097-1.403 2.195-1.403 1.416 0 2.762.702 3.682 1.579l3.186-3.264c-1.734-1.614-4.46-2.456-7.08-2.456Zm-58.71 3.965c2.302 0 3.47 1.51 3.47 3.334h-7.471c.142-1.79 1.771-3.334 4.001-3.334Zm19.57 0c2.301 0 3.47 1.51 3.47 3.334h-7.471c.142-1.79 1.77-3.334 4.001-3.334Zm19.783.807c2.62 0 4.248 2.281 4.248 4.492 0 2.281-1.628 4.492-4.248 4.492-2.762 0-4.178-2.245-4.178-4.526 0-2.246 1.416-4.458 4.178-4.458Z" fill="#41BEA5"/></svg>
